X: 2
T: Bruach Na Carraige Baine
R: waltz
M: 3/4
L: 1/8
K: Cmaj
cd|"C"e4de|"Cm"c2g3e|"G4(F6)"d3cAd|"C/A(G6)"G2 e3d |"Am"c3dA2|"G4/Em"G3EG2|"F(A)"A6|A4:|z2||
"Am"c4AB|"A/G"c2d2e2|"Dm/F"g3ag2|"E4"e4d2|"Am"c3AB2|"Am/G"c2d2e2|"F"a6|"G"g4e2|
"Dm/F"f4g>f|"Em"e2g2e2|"G4(F6)"d3c Ad|"C/A(G6)"G2e3d | "Am"c3dA2|"G4(Em)"G3EG2|"F(Am)"A6-|"F(Am)"A4||


Tune 1165	Setting 1165

